Suru++-Ubuntu/apps/symbolic/rstudio-symbolic.svg

<svg width="16" height="16" style="isolation:isolate" viewBox="0 0 16 16" xmlns="http://www.w3.org/2000/svg">
 <path d="m0.738786 2.902375v-2.902375h8.46438q1.234829 0 2.205805 0.369393t1.635884 0.986808q0.664908 0.617414 1.01847 1.435356t0.353562 1.704485q0 0.812665-0.174143 1.424802-0.174142 0.612138-0.506596 1.087072t-0.817942 0.83905-1.10818 0.65963q0.538259 0.274407 0.949868 0.83905 0.41161 0.564644 0.622692 1.461742l0.538258 2.079156h1.319262l0.021108 3.113456h-4.6438l-0.633245-3.799472q-0.094987-0.675462-0.290238-1.166227-0.19525-0.490765-0.522427-0.802111t-0.796834-0.459103-1.113456-0.147757h-1.361478v3.482849h1.467019v2.891821h-6.627969v-2.891821h1.656992v-10.205804h-1.656992zm7.261214 0h-2.100264v3.873351h2.100264q0.601583 0 1.081794-0.110818t0.823219-0.348285 0.527705-0.596306q0.184696-0.358839 0.184696-0.854882 0-0.92876-0.664907-1.44591-0.664908-0.51715-1.952507-0.51715z" fill="#808080" fill-rule="evenodd"/>
</svg>

<svg xmlns="http://www.w3.org/2000/svg" style="isolation:isolate" width="16" height="16" viewBox="0 0 16 16">
 <path fill="#808080" fill-rule="evenodd" d="M 0.738786 2.902375 L 0.738786 0 L 9.203166 0 L 9.203166 0 Q 10.437995 0 11.408971 0.369393 L 11.408971 0.369393 L 11.408971 0.369393 Q 12.379947 0.738786 13.044855 1.356201 L 13.044855 1.356201 L 13.044855 1.356201 Q 13.709763 1.973615 14.063325 2.791557 L 14.063325 2.791557 L 14.063325 2.791557 Q 14.416887 3.609499 14.416887 4.496042 L 14.416887 4.496042 L 14.416887 4.496042 Q 14.416887 5.308707 14.242744 5.920844 L 14.242744 5.920844 L 14.242744 5.920844 Q 14.068602 6.532982 13.736148 7.007916 L 13.736148 7.007916 L 13.736148 7.007916 Q 13.403694 7.48285 12.918206 7.846966 L 12.918206 7.846966 L 12.918206 7.846966 Q 12.432718 8.211082 11.810026 8.506596 L 11.810026 8.506596 L 11.810026 8.506596 Q 12.348285 8.781003 12.759894 9.345646 L 12.759894 9.345646 L 12.759894 9.345646 Q 13.171504 9.91029 13.382586 10.807388 L 13.382586 10.807388 L 13.920844 12.886544 L 15.240106 12.886544 L 15.261214 16 L 10.617414 16 L 9.984169 12.200528 L 9.984169 12.200528 Q 9.889182 11.525066 9.693931 11.034301 L 9.693931 11.034301 L 9.693931 11.034301 Q 9.498681 10.543536 9.171504 10.23219 L 9.171504 10.23219 L 9.171504 10.23219 Q 8.844327 9.920844 8.37467 9.773087 L 8.37467 9.773087 L 8.37467 9.773087 Q 7.905013 9.62533 7.261214 9.62533 L 7.261214 9.62533 L 5.899736 9.62533 L 5.899736 13.108179 L 7.366755 13.108179 L 7.366755 16 L 0.738786 16 L 0.738786 13.108179 L 2.395778 13.108179 L 2.395778 2.902375 L 0.738786 2.902375 Z M 8 2.902375 L 5.899736 2.902375 L 5.899736 6.775726 L 8 6.775726 L 8 6.775726 Q 8.601583 6.775726 9.081794 6.664908 L 9.081794 6.664908 L 9.081794 6.664908 Q 9.562005 6.55409 9.905013 6.316623 L 9.905013 6.316623 L 9.905013 6.316623 Q 10.248021 6.079156 10.432718 5.720317 L 10.432718 5.720317 L 10.432718 5.720317 Q 10.617414 5.361478 10.617414 4.865435 L 10.617414 4.865435 L 10.617414 4.865435 Q 10.617414 3.936675 9.952507 3.419525 L 9.952507 3.419525 L 9.952507 3.419525 Q 9.287599 2.902375 8 2.902375 L 8 2.902375 Z"/>
</svg>
